X:1
T:Title
%%score { 1 | 2 }
L:1/8
Q:1/4=100
M:4/4
K:A
V:1 treble nm="Grand Piano"
V:2 bass 
V:1
 A2 E2 c3 B | A2 F2 E4 | E2 [EG]2 [EA]2 [Ec]2 | [Ee]3 [Ed] [Ec]4 | B2 F2 d3 c | B2 =G2 F4 | %6
w: Caryl~Florio * * *||||||
 F2 [F^A]2 [FB]2 [Fd]2 | [Ec]3 [DB] [CA]4 |] %8
w: ||
V:2
 A,2 E,2 C3 B, | A,2 F,2 E,4 | [E,G,]2 [D,B,]2 [C,A,]2 [A,,A,]2 | [G,,B,]3 [G,,B,] [A,,A,]4 | %4
 B,2 F,2 D3 C | B,2 =G,2 F,4 | [F,^A,]2 [E,C]2 [D,B,]2 [B,,B,]2 | [E,G,]3 [E,G,] [A,,A,]4 |] %8

